X: 7336
T:Knutsford Races
M:4/4
O:England
A:North-West
R:Reel
K:A
E|\
A2cA eAcA| EAcA B2Bc| (3AAA cA eAcA| FdcB A3::\
g|\
aefd ecBA| aefb g2(3efg| aefd ecBA| FdcB A3::\
E|\
AEFE AEFE| DFCE B,2B,2| AEFE AEFE| FdcB A3::\
B|\
cdec acec| fdec B2Bd| cdec fdec| FdcB A3:|
